X: 20293
T: John B.Murphy's
R: slide
M: 12/8
K: Adorian
|:a2a a2g e2d ede|g>ag g2e d2B G2B|
A2B c2d ede a2g|1 e2d c2B A3 A2e:|2 e2d c2B A3 A2B||
|:cde A2B cde A2c|Bcd G2A Bcd G2A|
cde A2B cde a2g|1 e2d c2B A3 A2B:|2 e2d c2B A3 A2e||

